X:31
T: Graf und Nonne (Die Nonne)
N: Q0155d
O: Suedosteuropa, Rumaenien, Sathmar, Arded, Scheindorf
N: Schlusspause korrigiert.
R: Ballade, Standesunterschied, vergebliche Werbung, Liebe, Klage
M: 4/4
L: 1/16
K: E
 | B4A4G4B4 | A4G4F8 |
B4A4G4F4 | E4F2G2F4
B,4 | G3FE3DG2F2E4 | E4c4B4
A4 | G2B2G4F2GEF4 | E8z8

@@@ Tune index: 1741
